app/images/dist/check.svg

<svg width="54" height="54" viewBox="0 0 54 54" fill="none" xmlns="http://www.w3.org/2000/svg">
<path fill-rule="evenodd" clip-rule="evenodd" d="M0.333496 27C0.333496 12.28 12.2801 0.333374 27.0002 0.333374C41.7202 0.333374 53.6668 12.28 53.6668 27C53.6668 41.72 41.7202 53.6667 27.0002 53.6667C12.2801 53.6667 0.333496 41.72 0.333496 27ZM10.2 28.8667L19.7733 38.44C20.8133 39.48 22.5199 39.48 23.5335 38.44L43.7732 18.2C44.8132 17.16 44.8132 15.48 43.7732 14.44C42.7332 13.4 41.0532 13.4 40.0135 14.44L21.6668 32.7867L13.9601 25.1067C12.9201 24.0667 11.2401 24.0667 10.2 25.1067C9.7007 25.6048 9.42008 26.2814 9.42008 26.9867C9.42008 27.692 9.7007 28.3686 10.2 28.8667Z" fill="#63DD8F"/>
</svg>

<svg width="54" height="54" fill="none" xmlns="http://www.w3.org/2000/svg"><path fill-rule="evenodd" clip-rule="evenodd" d="M.333 27C.333 12.28 12.28.333 27 .333 41.72.333 53.667 12.28 53.667 27c0 14.72-11.947 26.667-26.667 26.667C12.28 53.667.333 41.72.333 27Zm9.867 1.867 9.573 9.573c1.04 1.04 2.747 1.04 3.76 0l20.24-20.24a2.656 2.656 0 0 0 0-3.76 2.655 2.655 0 0 0-3.76 0L21.668 32.787l-7.707-7.68a2.656 2.656 0 0 0-3.76 0 2.656 2.656 0 0 0 0 3.76Z" fill="#63DD8F"/></svg>
